X: 362
T: Khasidim tanz
N: Handwritten MS
M: 2/4
L: 1/16
K: Aphr^c
|::: "A"Acce edde | eccd dBBc | Tc3B "Gm"AGAB |1,3 "A"c2A2 c2A2 :|2,4 "A"A2z2 A4 :|
|::: "Gm"g2ba gfed | efgf e3d | cdef gfed | "A"cdBc A4 :::|
|::: "Gm"G2AB G2AB | G2AB G3G | ^FGAB cdcB |1,3 "A"A2A2 A2A2 :|2,4 "A"A2z2 A4 :|



